src/4-icons/type.svg

<svg width="260" height="260" viewBox="0 0 260 260" fill="none" xmlns="http://www.w3.org/2000/svg"><path fill-rule="evenodd" clip-rule="evenodd" d="M20 187h59.523c.178.586.41 1.159.698 1.712l34.291 65.904a9.971 9.971 0 0 0 8.852 5.384h100.343c3.536 0 6.769-.454 9.701-1.544 2.206-.818 4.23-2 5.923-3.515 2.568-2.272 4.351-5.121 5.621-8.12 1.268-3.029 2.115-6.301 2.84-9.875.997-4.999 2.206-12.603 3.505-21.571 1.934-13.421 4.019-29.841 5.681-44.443.816-7.301 1.541-14.148 2.086-19.965.513-5.816.877-10.572.936-13.875-.014-.258-.021-.671-.028-1.07a21.893 21.893 0 0 0-.032-1.051v-.004c-.091-2.756-.695-5.362-1.813-7.665-1.813-3.787-4.865-6.574-8.219-8.271-3.353-1.726-7.01-2.453-10.667-2.484-3.444 0-6.89.728-10.092 2.181-.302-1.272-.725-2.514-1.3-3.635-1.842-3.847-4.925-6.665-8.309-8.422-3.385-1.758-7.132-2.576-10.818-2.576-3.354 0-6.739.728-9.881 2.151-.302-1.152-.696-2.302-1.209-3.333-1.873-3.847-4.955-6.694-8.339-8.452-3.415-1.787-7.161-2.605-10.909-2.605-3.051 0-6.164.577-9.065 1.758V53.69c0-3.12-.665-6.06-1.904-8.604-1.873-3.847-4.955-6.694-8.341-8.482A22.175 22.175 0 0 0 156 35.28V20c0-11.046-8.954-20-20-20H20C8.954 0 0 8.954 0 20v147c0 11.046 8.954 20 20 20Zm-6-42v13c0 8.284 6.716 15 15 15h18v-28H14Zm47 0v28h22.073L95 146.093V145H61Zm34-14H61v-29h34v29Zm-48 0v-29H14v29h33Zm14-43h34V57H61v31Zm48 35.946V102h18.012v21.64h-15.553c-.842 0-1.666.105-2.459.306ZM109 88h18.012V57H109v31Zm-95 0h33V57H14v31Zm95-45h21.09a18.457 18.457 0 0 1 3.903-4.273c2.42-1.913 5.159-3.204 8.007-3.947V29c0-8.284-6.716-15-15-15h-18v29ZM95 14H61v29h34V14Zm-48 0v29H14V29c0-8.284 6.716-15 15-15h18Zm200.882 121.966v.849c-.09 3.665-.633 10.634-1.481 19.055-1.269 12.694-3.203 28.872-5.166 43.656-1.965 14.754-3.958 28.175-5.349 35.052-.544 2.787-1.148 5.09-1.842 6.877-.514 1.332-1.058 2.363-1.602 3.12-.846 1.152-1.602 1.758-2.81 2.333-1.239.545-3.113.969-5.923.969h-96.081c-1.865 0-3.541-1.038-4.402-2.692l-30.698-59.006a5 5 0 0 1-.136-4.334l19.101-43.088a5 5 0 0 1 4.571-2.974h10.949v36.372a6.042 6.042 0 0 0 6.044 6.042c3.338 0 6.043-2.646 6.043-5.983V53.689c0-1.424.273-2.455.695-3.303.605-1.273 1.602-2.243 3.082-3.03 1.451-.757 3.354-1.241 5.288-1.212 2.598 0 5.077.818 6.618 2.091.784.636 1.359 1.334 1.752 2.181.424.849.696 1.879.696 3.303v66.963a6.042 6.042 0 0 0 6.043 6.043 6.041 6.041 0 0 0 6.044-6.04v-9.108c0-1.424.272-2.453.695-3.302.604-1.272 1.602-2.241 3.082-3.029 1.45-.758 3.353-1.242 5.288-1.212 2.599 0 5.076.818 6.618 2.09.786.635 1.36 1.332 1.753 2.181.422.848.695 1.878.695 3.302v16.132a6.044 6.044 0 0 0 12.087.002v-4.016c0-1.363.273-2.363.695-3.181.605-1.212 1.631-2.212 3.113-2.999 1.481-.787 3.444-1.241 5.379-1.241 2.599 0 5.046.817 6.557 2.029.755.606 1.329 1.303 1.722 2.121.393.848.664 1.847.664 3.272v10.256a6.043 6.043 0 0 0 6.044 6.043h1.862a4.181 4.181 0 0 0 4.181-4.181c0-1.241.242-2.091.665-2.878.604-1.151 1.662-2.181 3.233-2.969 1.571-.788 3.596-1.272 5.59-1.241 2.568 0 4.986.787 6.375 1.938a5.752 5.752 0 0 1 1.631 1.999c.363.788.634 1.757.634 3.181v.091l.001.001Z" fill="#000"/></svg>

<svg width="260" height="260" viewBox="0 0 260 260" fill="none" xmlns="http://www.w3.org/2000/svg">
<path fill-rule="evenodd" clip-rule="evenodd" d="M20 187H79.523C79.7009 187.586 79.9337 188.159 80.2212 188.712L114.512 254.616C116.233 257.924 119.634 260 123.364 260H223.707C227.243 260 230.476 259.546 233.408 258.456C235.614 257.638 237.638 256.456 239.331 254.941C241.899 252.669 243.682 249.82 244.952 246.821C246.22 243.792 247.067 240.52 247.792 236.946C248.789 231.947 249.998 224.343 251.297 215.375C253.231 201.954 255.316 185.534 256.978 170.932C257.794 163.631 258.519 156.784 259.064 150.967C259.577 145.151 259.941 140.395 260 137.092C259.986 136.834 259.979 136.421 259.972 136.022C259.964 135.576 259.956 135.147 259.94 134.971V134.967C259.849 132.211 259.245 129.605 258.127 127.302C256.314 123.515 253.262 120.728 249.908 119.031C246.555 117.305 242.898 116.578 239.241 116.547C235.797 116.547 232.351 117.275 229.149 118.728C228.847 117.456 228.424 116.214 227.849 115.093C226.007 111.246 222.924 108.428 219.54 106.671C216.155 104.913 212.408 104.095 208.722 104.095C205.368 104.095 201.983 104.823 198.841 106.246C198.539 105.094 198.145 103.944 197.632 102.913C195.759 99.0658 192.677 96.2185 189.293 94.4611C185.878 92.6742 182.132 91.8564 178.384 91.8564C175.333 91.8564 172.22 92.4327 169.319 93.6138V53.691C169.319 50.5703 168.654 47.6319 167.415 45.0875C165.542 41.2402 162.46 38.3929 159.074 36.6047C158.075 36.0815 157.048 35.6415 156 35.2808V20C156 8.95431 147.046 0 136 0H20C8.9543 0 0 8.95431 0 20V167C0 178.046 8.9543 187 20 187ZM14 145V158C14 166.284 20.7157 173 29 173H47V145H14ZM61 145V173H83.0726L95 146.093V145H61ZM95 131H61V102H95V131ZM47 131V102H14V131H47ZM61 88H95V57H61V88ZM109 123.946V102H127.012V123.64H111.459C110.617 123.64 109.793 123.745 109 123.946ZM109 88H127.012V57H109V88ZM14 88H47V57H14V88ZM109 43H130.09C131.184 41.3402 132.518 39.9011 133.993 38.7266C136.413 36.8144 139.152 35.523 142 34.7798V29C142 20.7157 135.284 14 127 14H109V43ZM95 14H61V43H95V14ZM47 14V43H14V29C14 20.7157 20.7157 14 29 14H47ZM247.882 135.966V136.815C247.792 140.48 247.249 147.449 246.401 155.87C245.132 168.564 243.198 184.742 241.235 199.526C239.27 214.28 237.277 227.701 235.886 234.578C235.342 237.365 234.738 239.668 234.044 241.455C233.53 242.787 232.986 243.818 232.442 244.575C231.596 245.727 230.84 246.333 229.632 246.908C228.393 247.453 226.519 247.877 223.709 247.877H127.628C125.763 247.877 124.087 246.839 123.226 245.185L92.5276 186.179C91.8258 184.83 91.776 183.235 92.3922 181.845L111.493 138.757C112.294 136.949 114.086 135.783 116.064 135.783H127.013V172.155C127.013 175.493 129.719 178.197 133.057 178.197C136.395 178.197 139.1 175.551 139.1 172.214V53.6887C139.1 52.265 139.373 51.2342 139.795 50.3857C140.4 49.1135 141.397 48.1431 142.877 47.3562C144.328 46.5988 146.231 46.1147 148.165 46.1443C150.763 46.1443 153.242 46.9621 154.783 48.2354C155.567 48.8709 156.142 49.5692 156.535 50.4165C156.959 51.265 157.231 52.2946 157.231 53.7194V120.682C157.231 124.02 159.936 126.725 163.274 126.725C166.612 126.725 169.318 124.022 169.318 120.685V111.577C169.318 110.153 169.59 109.124 170.013 108.275C170.617 107.003 171.615 106.034 173.095 105.246C174.545 104.488 176.448 104.004 178.383 104.034C180.982 104.034 183.459 104.852 185.001 106.124C185.787 106.759 186.361 107.456 186.754 108.305C187.176 109.153 187.449 110.183 187.449 111.607V127.739C187.449 131.077 190.155 133.783 193.493 133.783C196.83 133.783 199.536 131.078 199.536 127.741V123.725C199.536 122.362 199.809 121.362 200.231 120.544C200.836 119.332 201.862 118.332 203.344 117.545C204.825 116.758 206.788 116.304 208.723 116.304C211.322 116.304 213.769 117.121 215.28 118.333C216.035 118.939 216.609 119.636 217.002 120.454C217.395 121.302 217.666 122.301 217.666 123.726V133.982C217.666 137.32 220.372 140.025 223.71 140.025H225.572C227.881 140.025 229.753 138.153 229.753 135.844C229.753 134.603 229.995 133.753 230.418 132.966C231.022 131.815 232.08 130.785 233.651 129.997C235.222 129.209 237.247 128.725 239.241 128.756C241.809 128.756 244.227 129.543 245.616 130.694C246.341 131.27 246.854 131.906 247.247 132.693C247.61 133.481 247.881 134.45 247.881 135.874V135.965L247.882 135.966Z" fill="black"/>
</svg>
